X: 6
T: No_103_A_Flaming_Light_in_the_East.krn
N: Derived from No_103_A_Flaming_Light_in_the_East.krn
%%abc-version 2.0
%%abcx-abcm2ps-target-version 5.9.1 (29 Sep 2008)
%%abc-creator hum2abc beta
%%abcx-conversion-date 2019/03/15 08:37:56
%%humdrum-veritas 3484142653
%%humdrum-veritas-data 2414710038
%%linebreak <none>
%%barnumbers 0
L: 1/8
M: 2/4
K: Bb clef=bass
B,B, [I:setbarnb 1]| 
C2B,2 | 
G,2F,2 ||  
[M:3/4]G,4B,G, ||  
[M:2/4]B,2G,2 | 
F,2G,E, ||  
[M:3/4]E,4F,E, ||  
[M:2/4]E,2E,2 | 
C,B,,z2 ||  
[M:3/4]E,6 ||  
[M:5/8]E,2C,B,,E, ||  
[M:2/4]E,2C,B,, | 
F,4 ||  
[M:3/8]E,C,F, ||  
[M:2/4]F,2F,2 | 
z2CB, ||  
[M:3/4]C2B,2G,2 | 
F,4G,E, ||  
[M:2/4]F,2E,2 | 
C,B,,z2 ||  
[M:3/4]F,4G,E, ||  
[M:2/4]F,2E,C,/ z/ | 
F,4- | 
F,E,/ z/F,2 | 
F,4 |]  



